assets/img/icons/ui/table.svg

<?xml version="1.0" encoding="utf-8"?>
<!-- Generated by IcoMoon.io -->
<!DOCTYPE svg PUBLIC "-//W3C//DTD SVG 1.1//EN" "http://www.w3.org/Graphics/SVG/1.1/DTD/svg11.dtd">
<svg version="1.1" xmlns="http://www.w3.org/2000/svg" xmlns:xlink="http://www.w3.org/1999/xlink" width="32" height="32" viewBox="0 0 32 32">
<path fill="rgb(0, 0, 0)" d="M2 2v26h30v-26h-30zM16 9.999h6v4.001h-6v-4.001zM16 16h6v4h-6v-4zM14 26h-10v-4h10v4zM14 20h-10v-4h10v4zM14 14h-10l0-4.001h10v4.001zM16 26v-4h6v4h-6zM30 26h-6v-4h6v4zM30 20h-6v-4h6v4zM30 14h-6v-4.001h6v4.001z"></path>
</svg>

<svg xmlns="http://www.w3.org/2000/svg" width="32" height="32" viewBox="0 0 32 32"><path d="M2 2v26h30V2H2zm14 7.999h6V14h-6V9.999zM16 16h6v4h-6v-4zm-2 10H4v-4h10v4zm0-6H4v-4h10v4zm0-6H4V9.999h10V14zm2 12v-4h6v4h-6zm14 0h-6v-4h6v4zm0-6h-6v-4h6v4zm0-6h-6V9.999h6V14z"/></svg>
